src/images/app-icons/dark-theme/IoTPlatform.svg

<svg xmlns="http://www.w3.org/2000/svg" xmlns:xlink="http://www.w3.org/1999/xlink" viewBox="0 0 32 32"><defs><linearGradient id="IoTPlatform_svg__a" x1="16.024" y1="32" x2="16.024" y2="27" gradientUnits="userSpaceOnUse"><stop offset=".2"/><stop offset="1" stop-opacity="0"/></linearGradient><linearGradient id="IoTPlatform_svg__b" x1="969.976" y1="3230" x2="969.976" y2="3225" gradientTransform="translate(-958 -3225)" xlink:href="#IoTPlatform_svg__a"/><linearGradient id="IoTPlatform_svg__c" x1="2098.964" y1="1169.024" x2="2098.964" y2="1164.024" gradientTransform="translate(-2069.464 -1146.512)" xlink:href="#IoTPlatform_svg__a"/><linearGradient id="IoTPlatform_svg__d" x1="-1121.048" y1="2092.976" x2="-1121.048" y2="2087.976" gradientTransform="translate(1123.548 -2074.5)" xlink:href="#IoTPlatform_svg__a"/><linearGradient id="IoTPlatform_svg__f" y1="32" x2="32" gradientUnits="userSpaceOnUse"><stop offset=".1" stop-color="#be95ff"/><stop offset=".9" stop-color="#4589ff"/></linearGradient><mask id="IoTPlatform_svg__e" x="0" y="0" width="32" height="32" maskUnits="userSpaceOnUse"><path d="M31 19h-5v-3h-2v8H8V8h8V6h-3V1h-2v5H8a2 2 0 00-2 2v3H1v2h5v6H1v2h5v3a2 2 0 002 2h3v5h2v-5h6v5h2v-5h3a2 2 0 002-2v-3h5z" fill="#fff"/><path fill="url(#IoTPlatform_svg__a)" d="M10 27h12.048v5H10z"/><path transform="rotate(180 11.976 2.5)" fill="url(#IoTPlatform_svg__b)" d="M9.952 0H14v5H9.952z"/><path transform="rotate(-90 29.5 20.012)" fill="url(#IoTPlatform_svg__c)" d="M27.488 17.512h4.024v5h-4.024z"/><path transform="rotate(90 2.5 15.976)" fill="url(#IoTPlatform_svg__d)" d="M-3.524 13.476H8.524v5H-3.524z"/></mask></defs><g data-name="Layer 2"><g data-name="Dark theme icons"><g mask="url(#IoTPlatform_svg__e)"><path fill="url(#IoTPlatform_svg__f)" d="M0 0h32v32H0z"/></g><path d="M21 20.99H11v-10h10zm-8-2h6v-6h-6zM31 12.99h-2a10.012 10.012 0 00-10-10v-2a12.013 12.013 0 0112 12z" fill="#f4f4f4"/><path d="M26 12.99h-2a5.006 5.006 0 00-5-5v-2a7.009 7.009 0 017 7z" fill="#f4f4f4"/></g></g></svg>

<svg xmlns="http://www.w3.org/2000/svg" xmlns:xlink="http://www.w3.org/1999/xlink" viewBox="0 0 32 32"><defs><style>.cls-1{fill:#fff;}.cls-2{fill:url(#linear-gradient);}.cls-3{fill:url(#linear-gradient-2);}.cls-4{fill:url(#linear-gradient-3);}.cls-5{fill:url(#linear-gradient-4);}.cls-6{mask:url(#mask);}.cls-7{fill:url(#linear-gradient-5);}.cls-8{fill:#f4f4f4;}</style><linearGradient id="linear-gradient" x1="16.024" y1="32" x2="16.024" y2="27" gradientUnits="userSpaceOnUse"><stop offset="0.2"/><stop offset="1" stop-opacity="0"/></linearGradient><linearGradient id="linear-gradient-2" x1="969.976" y1="3230" x2="969.976" y2="3225" gradientTransform="translate(-958 -3225)" xlink:href="#linear-gradient"/><linearGradient id="linear-gradient-3" x1="2098.964" y1="1169.024" x2="2098.964" y2="1164.024" gradientTransform="translate(-2069.464 -1146.512)" xlink:href="#linear-gradient"/><linearGradient id="linear-gradient-4" x1="-1121.048" y1="2092.976" x2="-1121.048" y2="2087.976" gradientTransform="translate(1123.548 -2074.5)" xlink:href="#linear-gradient"/><mask id="mask" x="0" y="0" width="32" height="32" maskUnits="userSpaceOnUse"><path class="cls-1" d="M31,19H26V16H24v8H8V8h8V6H13V1H11V6H8A2,2,0,0,0,6,8v3H1v2H6v6H1v2H6v3a2,2,0,0,0,2,2h3v5h2V26h6v5h2V26h3a2,2,0,0,0,2-2V21h5Z"/><rect class="cls-2" x="10" y="27" width="12.048" height="5"/><rect class="cls-3" x="9.952" width="4.048" height="5" transform="translate(23.952 5) rotate(180)"/><rect class="cls-4" x="27.488" y="17.512" width="4.024" height="5" transform="translate(9.488 49.512) rotate(-90)"/><rect class="cls-5" x="-3.524" y="13.476" width="12.048" height="5" transform="translate(18.476 13.476) rotate(90)"/></mask><linearGradient id="linear-gradient-5" y1="32" x2="32" gradientUnits="userSpaceOnUse"><stop offset="0.1" stop-color="#be95ff"/><stop offset="0.9" stop-color="#4589ff"/></linearGradient></defs><g id="Layer_2" data-name="Layer 2"><g id="Dark_theme_icons" data-name="Dark theme icons"><g class="cls-6"><rect class="cls-7" width="32" height="32"/></g><path class="cls-8" d="M21,20.99H11v-10H21Zm-8-2h6v-6H13Z"/><path class="cls-8" d="M31,12.99H29a10.012,10.012,0,0,0-10-10v-2A12.013,12.013,0,0,1,31,12.99Z"/><path class="cls-8" d="M26,12.99H24a5.006,5.006,0,0,0-5-5v-2A7.009,7.009,0,0,1,26,12.99Z"/></g></g></svg>
